svg/u1f442.svg

<svg viewBox="0 0 128 128" xmlns="http://www.w3.org/2000/svg" xmlns:xlink="http://www.w3.org/1999/xlink">
  <radialGradient id="d" cx="60.161" cy="79.925" gradientUnits="userSpaceOnUse" r="73.528">
    <stop offset="0" stop-color="#FFD54F"/>
    <stop offset=".747" stop-color="#FFC107"/>
  </radialGradient>
  <path d="m60.4 122.56c-13.17 0-19.17-7.86-19.17-15.17 0-3.57 0.52-6.14 1.03-8.62 0.87-4.27 1.69-8.31-0.59-15.9-0.86-2.85-2.93-5.46-5.34-8.49-2.43-3.05-5.17-6.52-7.24-10.96-6.69-14.4-6.37-28.61 0.9-40 6.98-10.93 19.54-18 32.02-18 11.86 0 23.87 5.12 32.15 13.69 6.42 6.65 9.8 14.42 9.54 21.89-0.75 21.19-9.12 34.92-15.85 45.96-3.39 5.56-6.32 10.36-7.57 15.04-4.71 17.71-9.72 20.56-19.88 20.56z" fill="url(#d)"/>
  <path d="m62.02 6.94c11.46 0 23.07 4.95 31.07 13.23 6.04 6.26 9.37 13.84 9.12 20.79-0.73 20.8-8.99 34.35-15.63 45.23-3.45 5.66-6.43 10.55-7.74 15.43-3.89 14.59-7.1 19.44-18.43 19.44-12.14 0-17.67-7.08-17.67-13.67 0-3.42 0.51-5.91 1-8.32 0.91-4.46 1.77-8.68-0.63-16.63-0.94-3.12-3.1-5.84-5.6-8.98-2.37-2.99-5.06-6.38-7.05-10.66-6.46-13.92-6.18-27.62 0.81-38.56 6.7-10.51 18.78-17.3 30.75-17.3m0-3c-23.63 0-50.53 25.12-34.28 60.12 4.15 8.94 10.9 13.94 12.5 19.25 3.47 11.5-0.5 14.08-0.5 24.08 0 8.67 7.33 16.67 20.67 16.67s17.33-6.67 21.33-21.67c3.58-13.43 22.33-29 23.47-61.33 0.64-18.24-19.57-37.12-43.19-37.12z" fill="#EDA600"/>
  <radialGradient id="c" cx="62.235" cy="55.25" gradientTransform="matrix(1 0 0 1.345 0 -19.063)" gradientUnits="userSpaceOnUse" r="32.315">
    <stop offset=".4862" stop-color="#FFCA28" stop-opacity=".8"/>
    <stop offset=".8603" stop-color="#FFB300"/>
  </radialGradient>
  <path d="m94.89 43.79c0.47-13.55-14.36-27.58-31.71-27.58s-37.11 18.67-25.18 44.67c3.05 6.65 10.37 9.7 12.09 13.85s-1 8.31-2.01 12.46c-1.01 4.19-1.55 7.94 1.56 10.1 7.01 4.85 7.74-10.29 17.24-10.78 9.34-0.48 8.46 9.42 13.17-3.59 3.53-9.7 14-15.1 14.84-39.13z" fill="url(#c)"/>
  <path d="m48.44 46.28c-0.24-0.33-0.64 0.17-0.43 0.52 1.59 2.74 4.98 6.6 8.58 7.48 5.29 1.29 10.96 3.23 14.14 8.12 6.49 9.98 2.33 21.48-8.46 24.63-1.8 0.52-1.49 1.16 0.31 0.63 10.92-3.18 17.44-12.9 12.81-23.93-5.52-13.17-19.16-6.49-26.95-17.45z" fill="#EDA600" opacity=".8"/>
  <path d="m36.72 35.07s14.58-19.06 34.95-12.93c9.55 2.87 17.27 11.94 18.74 21.86 1.66 11.25-11.46 40.31-11.46 40.31l3.28-4.64s16.26-24.24 12.26-39.12c-9.7-36.15-47.75-25.15-53.35-13.14-2.8 6.03-4.42 7.66-4.42 7.66z" fill="#EDA600"/>
  <defs>
    <path id="b" d="m94.89 44.79c0.47-13.55-14.36-27.58-31.71-27.58s-37.11 18.67-25.18 44.67c3.05 6.65 10.03 7.43 12.09 13.85 2.01 6.26-0.96 8.52-1.96 12.68-1.01 4.19-1.59 7.73 1.52 9.88 7.01 4.85 7.74-10.29 17.24-10.78 9.34-0.48 8.46 9.42 13.17-3.59 3.52-9.7 13.99-15.1 14.83-39.13z"/>
  </defs>
  <clipPath id="a">
    <use xlink:href="#b"/>
  </clipPath>
  <g clip-path="url(#a)">
    <path d="m53.82 71.15c-1.6-2.59-6.67-6.35-11.75-3.44-2.42 1.39 4.3 17.19 5.59 19.2 0.26 0.41 0.4 1.23 2.44 0.43 1.8-0.71 4.18-3.11 4.83-5.82 0.77-3.27 0.9-7.1-1.11-10.37z" fill="#D48322"/>
  </g>
</svg>

<svg viewBox="0 0 128 128" xmlns="http://www.w3.org/2000/svg">
  <defs>
    <radialGradient id="d" cx="60.161" cy="79.925" gradientUnits="userSpaceOnUse" r="73.528">
      <stop offset="0" stop-color="#FFD54F"/>
      <stop offset=".747" stop-color="#FFC107"/>
    </radialGradient>
    <radialGradient id="c" cx="62.235" cy="41.076766" gradientTransform="matrix(1 0 0 1.345 0 0)" gradientUnits="userSpaceOnUse" r="32.315">
      <stop offset=".4862" stop-color="#FFCA28" stop-opacity=".8"/>
      <stop offset=".8603" stop-color="#FFB300"/>
    </radialGradient>
  </defs>
  <path d="M60.4,122.56 C47.23,122.56 41.23,114.7 41.23,107.39 C41.23,103.82 41.75,101.25 42.26,98.77 C43.13,94.5 43.95,90.46 41.67,82.87 C40.81,80.02 38.74,77.41 36.33,74.38 C33.9,71.33 31.16,67.86 29.09,63.42 C22.4,49.02 22.72,34.81 29.99,23.42 C36.97,12.49 49.53,5.42 62.01,5.42 C73.87,5.42 85.88,10.54 94.16,19.11 C100.58,25.76 103.96,33.53 103.7,41 C102.95,62.19 94.58,75.92 87.85,86.96 C84.46,92.52 81.53,97.32 80.28,102 C75.57,119.71 70.56,122.56 60.4,122.56 Z" fill="url(#d)"/>
  <path d="M62.02,6.94 C73.48,6.94 85.09,11.89 93.09,20.17 C99.13,26.43 102.46,34.01 102.21,40.96 C101.48,61.76 93.22,75.31 86.58,86.19 C83.13,91.85 80.15,96.74 78.84,101.62 C74.95,116.21 71.74,121.06 60.41,121.06 C48.27,121.06 42.74,113.98 42.74,107.39 C42.74,103.97 43.25,101.48 43.74,99.07 C44.65,94.61 45.51,90.39 43.11,82.44 C42.17,79.32 40.01,76.6 37.51,73.46 C35.14,70.47 32.45,67.08 30.46,62.8 C24,48.88 24.28,35.18 31.27,24.24 C37.97,13.73 50.05,6.94 62.02,6.94 M62.02,3.94 C38.39,3.94 11.49,29.06 27.74,64.06 C31.89,73 38.64,78 40.24,83.31 C43.71,94.81 39.74,97.39 39.74,107.39 C39.74,116.06 47.07,124.06 60.41,124.06 C73.75,124.06 77.74,117.39 81.74,102.39 C85.32,88.96 104.07,73.39 105.21,41.06 C105.85,22.82 85.64,3.94 62.02,3.94 Z" fill="#EDA600"/>
  <path d="M94.89,43.79 C95.36,30.24 80.53,16.21 63.18,16.21 C45.83,16.21 26.07,34.88 38,60.88 C41.05,67.53 48.37,70.58 50.09,74.73 C51.81,78.88 49.09,83.04 48.08,87.19 C47.07,91.38 46.53,95.13 49.64,97.29 C56.65,102.14 57.38,87 66.88,86.51 C76.22,86.03 75.34,95.93 80.05,82.92 C83.58,73.22 94.05,67.82 94.89,43.79 Z" fill="url(#c)"/>
  <path d="M48.44,46.28 C48.2,45.95 47.8,46.45 48.01,46.8 C49.6,49.54 52.99,53.4 56.59,54.28 C61.88,55.57 67.55,57.51 70.73,62.4 C77.22,72.38 73.06,83.88 62.27,87.03 C60.47,87.55 60.78,88.19 62.58,87.66 C73.5,84.48 80.02,74.76 75.39,63.73 C69.87,50.56 56.23,57.24 48.44,46.28 Z" fill="#EDA600" opacity="0.8"/>
  <path d="M36.72,35.07 C36.72,35.07 51.3,16.01 71.67,22.14 C81.22,25.01 88.94,34.08 90.41,44 C92.07,55.25 78.95,84.31 78.95,84.31 L82.23,79.67 C82.23,79.67 98.49,55.43 94.49,40.55 C84.79,4.4 46.74,15.4 41.14,27.41 C38.34,33.44 36.72,35.07 36.72,35.07 Z" fill="#EDA600"/>
  <path d="M53.82,71.15 C55.83,74.42 55.7,78.25 54.93,81.52 C54.28,84.23 51.9,86.63 50.1,87.34 C49.208,87.69 48.68,87.73 48.345,87.63 C48.627,86.725 48.988,85.9 49.346,85.085 C50.446,82.576 51.509,80.15 50.09,75.73 C48.794,71.692 45.553,69.886 42.567,67.446 C47.477,65.044 52.272,68.644 53.82,71.15 Z" fill="#D48322"/>
</svg>
